X:2001
T:Ballydesmond Polka 1
R:Polka
C:Trad.
O:Ireland
M:2/2
L:1/8
Q:1/4=200
K:G
"Am"E2A2 A3B|c2d2 e2g2|"G"G4 G3A|G2E2 E2D2|"Am"E2A2 A3B|c2d2 e2g2|"G"g2e2 d2B2|"G/Am"B2A2 A4:|
|:"Am"a3g a2b2|a2g2 e2f2|"G"g3f g2a2|g2e2 e2d2|"Am"e2a2 a3b|a2g2 e2f2|"G"g2e2 d2B2|"Am/G"B2A2 A4:|

